lib/healthicons/icons/solid/typography/R.svg

<svg fill="none" height="48" viewBox="0 0 48 48" width="48" xmlns="http://www.w3.org/2000/svg"><path clip-rule="evenodd" d="m14 12c0-1.1046.8954-2 2-2h10c4.4183 0 8 3.5817 8 8 0 3.3747-2.0896 6.2614-5.0456 7.4368l4.8345 9.6688c.4939.9879.0935 2.1893-.8945 2.6833-.9879.4939-2.1893.0935-2.6833-.8945l-5.4472-10.8944h-6.7639v10c0 1.1046-.8954 2-2 2s-2-.8954-2-2zm4 10h8c2.2091 0 4-1.7909 4-4s-1.7909-4-4-4h-8z" fill="#333" fill-rule="evenodd"/></svg>

<svg width="48" height="48" viewBox="0 0 48 48" fill="none" xmlns="http://www.w3.org/2000/svg">
<path fill-rule="evenodd" clip-rule="evenodd" d="M14 12C14 10.8954 14.8954 10 16 10L26 10C30.4183 10 34 13.5817 34 18C34 21.3747 31.9104 24.2614 28.9544 25.4368L33.7889 35.1056C34.2828 36.0935 33.8824 37.2949 32.8944 37.7889C31.9065 38.2828 30.7051 37.8824 30.2111 36.8944L24.7639 26H18L18 36C18 37.1046 17.1046 38 16 38C14.8954 38 14 37.1046 14 36L14 12ZM18 22L26 22C28.2091 22 30 20.2091 30 18C30 15.7909 28.2091 14 26 14L18 14L18 22Z" fill="#333333"/>
</svg>
